svgs/sharp-regular/money-bill.svg

<svg xmlns="http://www.w3.org/2000/svg" viewBox="0 0 576 512"><!--! Font Awesome Pro 6.4.0 by @fontawesome - https://fontawesome.com License - https://fontawesome.com/license (Commercial License) Copyright 2023 Fonticons, Inc. --><path d="M112 112c0 35.3-28.7 64-64 64V336c35.3 0 64 28.7 64 64H464c0-35.3 28.7-64 64-64V176c-35.3 0-64-28.7-64-64H112zM0 64H48 528h48v48V400v48H528 48 0V400 112 64zm288 96a96 96 0 1 1 0 192 96 96 0 1 1 0-192z"/></svg>

<svg xmlns="http://www.w3.org/2000/svg" viewBox="0 0 576 512"><!--! Font Awesome Pro 6.6.0 by @fontawesome - https://fontawesome.com License - https://fontawesome.com/license (Commercial License) Copyright 2024 Fonticons, Inc. --><path d="M112 112c0 35.3-28.7 64-64 64l0 160c35.3 0 64 28.7 64 64l352 0c0-35.3 28.7-64 64-64l0-160c-35.3 0-64-28.7-64-64l-352 0zM0 64l48 0 480 0 48 0 0 48 0 288 0 48-48 0L48 448 0 448l0-48L0 112 0 64zm288 96a96 96 0 1 1 0 192 96 96 0 1 1 0-192z"/></svg>
